X: 1998
T: Yine Neş`e-i Muhabbet
C: Dede Efendi
O: Turkey
F: http://compmusic.upf.edu/node/140
N: hicaz--yuruksemai--yuruksemai--yine_nese-i--dede_efendi
N: makam= hicaz
N: form= yuruksemai
N: usul= yuruksemai = 6/8
M: 6/8
L: 1/16
K: C _7/8B ^f ^c 
Q: 1/4=90
%%MIDI tuningsystem comma53
A8 =f4e2d2 {e}c8  | e2=f2e2d2 {e}c4d4 c2B2B2A2  | \
w:  Ah  yi ne  *  *  neş_  |  e  *  i  *  *  *  mu hab  | 
A8 =f4e2d2 {e}c8  | e2=f2e2d2 {e}c4d4 c2B2B2A2  | 
w:  bet  yi ne  *  *  neş_  |  e  *  i  *  *  *  mu hab  | 
A8 d4d2c2 {e}d8  | d4d8d2c2 d8  | c2d2e2f2 g4=f2e2 d3cB2c2  | 
w:  bet   dil_ ü  *  *  câ  |  nım  et ti  *  şey  |  dâ    | 
B4c16z4  | e4{=f}e2d2 c4d4 e4^f4  | g4g2^2/4f2 =f2e2a4 a2g2f2e2  | \
w:   |  Ah  *  *  *  yi ne  bezm_  |  i  iyş_ *  *  *  i  vus  | 
d8 c4d4 e4f4  | 
w:  lat  yi ne  bezm_  | 
g4g2^2/4f2 f2e2a4 a2g2=f2e2  | d8 e4=f4 f4f2e2  | \
w:  i  iyş_ *  *  *  i  vus  |  lat   e dip  ehl_  | 
e4e4 {=f}e2d2d4 d3cB2c2  | 
w:  i  aş *  *  *  kı  ih  | 
B4c16z4  | A8 g4g4 g2=f2f2e2  | e2=f2e2d2 {e}c4d4 c2B2B2A2  | \
w:  yâ   |  ah  e dip  ehl_  |  i  *  aş *  *  *  kı  ih  | 
A8 e3dc2d2 e8  | 
w:  yâ   SAZ  | 
e4{=f}e2d2 c4d4 e8  | e8 ^2/4f4d4 g8  | \
w:  Ah  *  *  *  o  gü zel   |  ba şın_ i çin   | 
g8 g4g4 g4{a}g2f2  | f4e2f2 a2g2f2e2 =f3{g}ed4  | 
w:  *  o  hi lal   |  ka *  *  şın_ *  i *  çin    | 
c4d16z4  | e4=f4 e4d4 d3cB4  | c2d2e2f2 g4=f2e2 d3cB2c2  | 
w:  Gel   |  gel   |  â *  *  *  şık_ ı  *  na  | 
B4c16z4  | g16 =f3ed4  | e4=f4 e4d4 d2c2B4  | \
w:  lân   |  gel   |  gel   | 
c2d2e2d2 d2c2c2B2 c2B2B2A2  | 
w:  dil  *  *  *  sa *  na  *  hay  | 
A8 a3^g=f2g2 a4z4  | a8 a4a8a4  | c'2b2b2a2 a3^g=f2g2 a6z2  | 
w:  ran   SAZ  |  Ten  ni  ten  ni   |  ten  *  nen  *  ni  *  te  ne  nen    | 
A8 A4A8A4  | c2B2B2A2 A3^G=F2G2 A8  | \
w:  ten  ni  ten  ni   |  ten  *  nen  *  ni  *  te  ne  nen    | 
g8 g4g8g4  | _1/4b2_7/8a2a2g2 g3f_7/8e2f2 g8  | 
w:  ten  ni  ten  ni   |  ten  *  nen  *  ni  *  te  ne  nen    | 
A8 A4A8A4  | c2B2B2A2 A3^G=F2G2 A8  | \
w:  ten  ni  ten  ni   |  ten  *  nen  *  ni  *  te  ne  nen    | 
f8 f4f8f4  | a2g2g2f2 f3^ed2e2 f8  | 
w:  ten  ni  ten  ni   |  ten  *  nen  *  ni  *  te  ne  nen    | 
A8 A4A8A4  | c2B2B2A2 A3^G=F2G2 A4z4  | \
w:  ten  ni  ten  ni   |  ten  *  nen  *  ni  *  te  ne  nen    | 
{f}g12g2f2 =f3ed4  | e4=f4 e4d4 d3cB4  | 
w:  *  Gel   |  gel   | 
c2d2e2f2 g4=f2e2 d3cB2c2  | B4c8c8z4  | \
w:  ka *  *  *  şı  ke *  ma  |  nım    | 
{f}g12g2f2 {g}=f3ed4  | 
w:  *  Gel   | 
e4=f4 e4d4 d3cB4  | c2d2e2d2 d2c2c2B2 c2B2B2A2  | \
w:  gel   |  dil *  *  *  de  *  ni *  hâ  | 
A8 a3^g=f2g2 a8  | 
w:  nım   SAZ  | 
a8 a4a4 a8  | a4a8=b4 =c'2b2a2^g2  | \
w:  Ah  a man_ ey   |  gül_ i  ni hâ  | 
a8 a4a4 a6g2  | g4g8g2f2 a2g2f2^3/4e2  | 
w:  lim  a man  ey   |  gül_ i  ni *  hâ  | 
f8 f4f4 a4a2^g2  | f4a4 a2^g2f4 a4{=b}a2g2  | \
w:  lim   be ni  ey  |  le  vas *  *  la  şa  | 
^g2=f2f2e2 e2d2d2c2 d4z4  | 
w:  yan    | 
d8 d'4d'4 d'2=c'2c'2=b2  | =b2=c'2b2a2 ^g4a4 g2=f2f2e2  | \
w:  Ah  be ni  ey  |  le  *  vas *  *  la  şa  | 
e8 e3dc2d2 e8  | 
w:  yan   SAZ  | 
e4{=f}e2d2 c4d4 e4^f4  | g4g2^2/4f2 =f2e2a4 a2g2f2e2  | \
w:  Ah  *  *  *  yi ne  bezm_  |  i  iyş_ *  *  *  i  vus  | 
d8 c4d4 e4f4  | 
w:  lat  yi ne  bezm_  | 
g4g2^2/4f2 f2e2a4 a2g2=f2e2  | d8 e4=f4 f4f2e2  | \
w:  i  iyş_ *  *  *  i  vus  |  lat   e dip  ehl_  | 
e4e4 {=f}e2d2d4 d3cB2c2  | 
w:  i  aş *  *  *  kı  ih  | 
B4c16z4  | A8 g4g4 g2=f2f2e2  | e2=f2e2d2 {e}c4d4 c2B2B2A2  | \
w:  yâ   |  ah  e dip  ehl_  |  i  *  aş *  *  *  kı  ih  | 
A8 e3dc2d2 e8  | 
w:  yâ   SAZ  | 
e4{=f}e2d2 c4d4 e8  | e8 ^2/4f4d4 g8  | \
w:  Ah  *  *  *  o  gü zel   |  ba şın_ i çin   | 
g8 g4g4 g4{a}g2f2  | f4e2f2 a2g2f2e2 =f3{g}ed4  | 
w:  *  o  hi lal   |  ka *  *  şın_ *  i *  çin    | 
c4d16z4  | e4=f4 e4d4 d3cB4  | c2d2e2f2 g4=f2e2 d3cB2c2  | 
w:  Gel   |  gel   |  â *  *  *  şık_ ı  *  na  | 
B4c16z4  | g16 =f3ed4  | e4=f4 e4d4 d2c2B4  | \
w:  lân   |  gel   |  gel   | 
c2d2e2d2 d2c2c2B2 c2B2B2A2  | 
w:  dil  *  *  *  sa *  na  *  hay  | 
A8 a3^g=f2g2 a4z4  | a8 a4a8a4  | c'2b2b2a2 a3^g=f2g2 a6z2  | 
w:  ran   SAZ  |  Ten  ni  ten  ni   |  ten  *  nen  *  ni  *  te  ne  nen    | 
A8 A4A8A4  | c2B2B2A2 A3^G=F2G2 A8  | \
w:  ten  ni  ten  ni   |  ten  *  nen  *  ni  *  te  ne  nen    | 
g8 g4g8g4  | _1/4b2_7/8a2a2g2 g3f_7/8e2f2 g8  | 
w:  ten  ni  ten  ni   |  ten  *  nen  *  ni  *  te  ne  nen    | 
A8 A4A8A4  | c2B2B2A2 A3^G=F2G2 A8  | \
w:  ten  ni  ten  ni   |  ten  *  nen  *  ni  *  te  ne  nen    | 
f8 f4f8f4  | a2g2g2f2 f3^ed2e2 f8  | 
w:  ten  ni  ten  ni   |  ten  *  nen  *  ni  *  te  ne  nen    | 
A8 A4A8A4  | c2B2B2A2 A3^G=F2G2 A4z4  | \
w:  ten  ni  ten  ni   |  ten  *  nen  *  ni  *  te  ne  nen    | 
{f}g12g2f2 =f3ed4  | e4=f4 e4d4 d3cB4  | 
w:  *  Gel   |  gel   | 
c2d2e2f2 g4=f2e2 d3cB2c2  | B4c8c8z4  | \
w:  ka *  *  *  şı  ke *  ma  |  nım    | 
{f}g12g2f2 {g}=f3ed4  | 
w:  *  Gel   | 
e4=f4 e4d4 d3cB4  | c2d2e2d2 d2c2c2B2 c2B2B2A2  | \
w:  gel   |  dil *  *  *  de  *  ni *  hâ  | 
A8 |
w:  nım    | 


